X:3669
T:Lilian Polka. GHW.028
O:england
M:2/4
L:1/8
Q:200
S:George H.Watson,MS,Swanton Abbott,Norfolk,1850-1880
R:Polka
A:Norfolk
N:PlayQabc didn't like the original slurred triplet quavers.CGP11
K:F
(3A/c/d/)|af cA|dG G/^F/G/A/|cB GE|dc c (3A/c/d/)|
af cA|dG G/^F/G/A/|cB GE|Fff:|
K:C
|:GA/B/ c/d/e/f/|gg e2|ff d2|ee c2|
GA/B/ c/d/e/f/|gg e2|ff d2|c3:|
K:Bb
|:B/c/|dF Bc|(3B/c/B/) AA c/d/|eF c>d|(3c/d/c/) BB B/c/|
dF B>c|(3B/c/B/) AA e/f/|gc/d/ eG/A/|cBB:|
W:All triplets slurred quavers in MS|
